X: 5329
T: Brule Boys In Paris, The
R: mazurka
M: 3/4
K: Gmajor
Bc|:d2 d2 GB|c2 c2 AF|DF AB cA|ed d2 Bc|
d2 d2 GB|c2 c2 AF|DF AB c/B/A|1 G4 Bc:|2 G4 DC||
|:B,D GD GD|CE GE GE|DF AB AF|GA Bc d2|
B,D GD GD|CE GE GE|DF AB AF|1 G4 DC:|2 G4 Bc||

